static/img/grafik.svg

<?xml version="1.0" encoding="utf-8"?>
<!-- Generated by IcoMoon.io -->
<!DOCTYPE svg PUBLIC "-//W3C//DTD SVG 1.1//EN" "http://www.w3.org/Graphics/SVG/1.1/DTD/svg11.dtd">
<svg version="1.1" xmlns="http://www.w3.org/2000/svg" xmlns:xlink="http://www.w3.org/1999/xlink" width="20" height="20" viewBox="0 0 20 20">
<path fill="#000000" d="M19.104 0.896c-0.562-0.562-1.309-0.871-2.104-0.871s-1.542 0.309-2.104 0.871l-12.75 12.75c-0.052 0.052-0.091 0.114-0.116 0.183l-2 5.5c-0.066 0.183-0.021 0.387 0.116 0.524 0.095 0.095 0.223 0.146 0.354 0.146 0.057 0 0.115-0.010 0.171-0.030l5.5-2c0.069-0.025 0.131-0.065 0.183-0.116l12.75-12.75c0.562-0.562 0.871-1.309 0.871-2.104s-0.309-1.542-0.871-2.104zM5.725 17.068l-4.389 1.596 1.596-4.389 11.068-11.068 2.793 2.793-11.068 11.068zM18.396 4.396l-0.896 0.896-2.793-2.793 0.896-0.896c0.373-0.373 0.869-0.578 1.396-0.578s1.023 0.205 1.396 0.578c0.373 0.373 0.578 0.869 0.578 1.396s-0.205 1.023-0.578 1.396z"></path>
</svg>

<?xml version="1.0" encoding="utf-8"?>
<!-- Generator: Adobe Illustrator 24.3.0, SVG Export Plug-In . SVG Version: 6.00 Build 0)  -->
<svg version="1.1" id="Ebene_1" xmlns="http://www.w3.org/2000/svg" xmlns:xlink="http://www.w3.org/1999/xlink" x="0px" y="0px"
	 viewBox="0 0 20 20" style="enable-background:new 0 0 20 20;" xml:space="preserve">
<style type="text/css">
	.st0{fill:#FF6666;}
</style>
<path class="st0" d="M19.1,0.9C18.5,0.3,17.8,0,17,0s-1.5,0.3-2.1,0.9L2.1,13.6c-0.1,0.1-0.1,0.1-0.1,0.2l-2,5.5
	c-0.1,0.2,0,0.4,0.1,0.5C0.2,19.9,0.4,20,0.5,20c0.1,0,0.1,0,0.2,0l5.5-2c0.1,0,0.1-0.1,0.2-0.1L19.1,5.1C19.7,4.5,20,3.8,20,3
	S19.7,1.5,19.1,0.9L19.1,0.9z M5.7,17.1l-4.4,1.6l1.6-4.4L14,3.2L16.8,6C16.8,6,5.7,17.1,5.7,17.1z M18.4,4.4l-0.9,0.9l-2.8-2.8
	l0.9-0.9C16,1.2,16.5,1,17,1s1,0.2,1.4,0.6S19,2.5,19,3S18.8,4,18.4,4.4L18.4,4.4z"/>
</svg>
